svg/u1fab5.svg

<svg viewBox="0 0 128 128" xmlns="http://www.w3.org/2000/svg">
  <g>
    <polygon fill="#633D35" points="37.29,113.26 28.87,117.74 28.87,97.58 39.39,108.78 "/>
    <path d="M99.99,19.95c0,3.02,0.51,21.49,0.51,21.49s0.26,1.98,1.75,2.48c0.98,0.33,3.12-0.37,5.73-2.41 c0.35-0.27,0.82-0.31,1.2-0.09c1,0.6,3.15,1.77,4.5,5.32c1.49,3.92,1.21,7.22,0.98,8.62c-0.08,0.47-0.3,0.9-0.57,1.24 C111.66,59.6,99.5,75.18,99.5,85.08c0,0,0.2,14.45,0.2,22.95c0,7.75-13.09,14.22-30.49,15.72l-9.71-2.67l-11.2,2.01 c-3.56-0.55-6.88-1.31-9.86-2.25l-7.47-21.02l-2.1,17.92c0,0-5.61-5.75-5.61-9.71c0-8.57-2.1-88.03-2.1-88.03L99.99,19.95z" fill="#AD7156"/>
    <linearGradient id="SVGID_1_" gradientUnits="userSpaceOnUse" x1="102.0352" x2="102.0169" y1="43.768" y2="43.8319">
      <stop offset="0" stop-color="#CE8963"/>
      <stop offset="1" stop-color="#D08A61" stop-opacity="0"/>
    </linearGradient>
    <path d="M102.25,43.91c-0.17-0.06-0.32-0.14-0.46-0.23C101.97,43.8,102.14,43.87,102.25,43.91z" fill="url(#SVGID_1_)"/>
    <path d="M47,35.58c-0.33,5.56-0.91,11.07-1.53,16.57l-0.93,8.23c-0.29,2.74-0.67,5.45-0.59,8.08 c0,2.7,0.13,5.46,0.27,8.21l0.37,8.28c0.24,5.53,0.45,11.06,0.41,16.63c-1.2-5.44-2.05-10.93-2.74-16.44 c-0.68-5.52-1.21-11.02-1.31-16.67c-0.02-2.91,0.4-5.71,0.78-8.46c0.44-2.75,0.88-5.49,1.43-8.21 C44.23,46.35,45.45,40.94,47,35.58z" fill="#CE8963"/>
    <path d="M34,63.58c0.27,0.7,0.3,1.46,0.38,2.19c0.05,0.74,0.1,1.48,0.12,2.22 c0.04,1.48,0.06,2.96,0.04,4.44c-0.02,2.96-0.13,5.91-0.29,8.86c-0.15,2.95-0.35,5.89-0.59,8.83c-0.21,2.94-0.52,5.88-0.81,8.82 l-0.03-0.36l1.42,5.21l1.35,5.23c0.87,3.5,1.7,7,2.41,10.55c-1.32-3.36-2.52-6.77-3.68-10.18l-1.7-5.13L31,99.13l-0.05-0.16 l0.02-0.19c0.25-2.93,0.46-5.87,0.74-8.81c0.25-2.93,0.53-5.87,0.82-8.8l0.89-8.79l0.43-4.4c0.07-0.73,0.13-1.47,0.18-2.2 C34.05,65.05,34.15,64.31,34,63.58z" fill="#CE8963"/>
    <path d="M58.5,96.08v25l8,2C66.5,123.08,61.5,108.08,58.5,96.08z" fill="#CE8963"/>
    <path d="M88.5,79.08c5.68-12.95,25.68-26.93,25.68-26.93l0.59-0.43c0.11,1.76,0.02,3.04-0.14,3.74 c-0.07,0.31-0.3,0.82-0.46,1.01c-1.92,2.36-14.67,18.42-14.67,28.6c0,0,0.2,14.45,0.2,22.95c0,3.81-4.2,9.05-13.2,12.05l4-29l-9,9 C81.5,100.08,84.51,88.19,88.5,79.08z" fill="#965B44"/>
    <path d="M100.5,40.79c0.26,4.05,3.08,3.13,3.08,3.13c-3.24,1.52-7.94,2.37-10.66,0.56 c-3-2-4.42-12.39-4.42-12.39l2-6l9.44-5.53L100.5,40.79z" fill="#965B44"/>
    <g>
      <path d="M58.48,4.27C38.43,4.73,22.5,11.73,22.5,20.3c0,8.87,17.05,16.05,38.08,16.05 s38.08-7.19,38.08-16.05c0-8.53-15.78-15.51-35.71-16.02" fill="#FFCC80"/>
      <path d="M58.48,4.27c-7.17,0.57-14.32,1.7-20.99,4.16c-3.32,1.21-6.56,2.71-9.27,4.8 c-1.33,1.05-2.56,2.23-3.37,3.59c-0.84,1.34-1.18,2.84-0.94,4.28c0.24,1.43,1.05,2.79,2.16,3.95c1.11,1.16,2.45,2.19,3.91,3.05 c2.93,1.73,6.22,2.96,9.58,3.89c6.75,1.86,13.83,2.64,20.89,2.63c7.05,0.02,14.14-0.73,20.9-2.57c3.36-0.92,6.67-2.13,9.61-3.83 c1.47-0.85,2.84-1.84,3.96-3c1.13-1.14,2-2.48,2.28-3.91c0.33-1.43-0.01-2.93-0.77-4.29c-0.78-1.36-1.97-2.57-3.29-3.63 c-2.67-2.13-5.91-3.64-9.22-4.87c-6.65-2.49-13.8-3.64-20.97-4.24c1.8-0.03,3.6-0.02,5.41,0.04c1.8,0.09,3.61,0.24,5.4,0.45 c3.59,0.44,7.18,1.09,10.69,2.13c3.49,1.08,6.95,2.47,10.05,4.66c1.55,1.1,2.99,2.44,4.07,4.16c1.07,1.71,1.68,3.93,1.29,6.06 c-0.34,2.14-1.5,3.97-2.82,5.42c-1.34,1.47-2.9,2.62-4.52,3.62c-3.24,1.98-6.74,3.33-10.28,4.39c-7.12,2.04-14.47,2.84-21.8,2.87 c-7.32-0.06-14.68-0.87-21.79-2.95c-3.54-1.07-7.03-2.45-10.26-4.45c-1.61-1.01-3.15-2.2-4.48-3.69c-1.3-1.48-2.4-3.37-2.68-5.51 c-0.13-1.06-0.06-2.15,0.21-3.18c0.26-1.03,0.74-1.96,1.29-2.81c1.11-1.7,2.59-2.99,4.14-4.08c3.13-2.14,6.58-3.52,10.08-4.58 c3.51-1.02,7.1-1.66,10.7-2.09c1.8-0.2,3.6-0.35,5.41-0.43C54.87,4.23,56.68,4.23,58.48,4.27z" fill="#CE8963"/>
    </g>
    <radialGradient id="SVGID_2_" cx="59.4416" cy="16.159" gradientTransform="matrix(-1.1788 0 0 0.9412 130.1808 -0.7889)" gradientUnits="userSpaceOnUse" r="21.6674">
      <stop offset="0.0561" stop-color="#FFA726"/>
      <stop offset="0.135" stop-color="#FFA726"/>
      <stop offset="1" stop-color="#FFA726" stop-opacity="0.1"/>
    </radialGradient>
    <path d="M21.91,17.65c0,7.03,14.33,12.73,32.02,12.73s32.02-5.7,32.02-12.73S79.7,2.51,53.93,4.91 C36.32,6.56,21.91,10.61,21.91,17.65z" fill="url(#SVGID_2_)"/>
    <g opacity="0.66">
      <path d="M31.08,18.62c-0.01,1.39,0.81,2.64,1.79,3.61c1.01,0.96,2.21,1.71,3.46,2.34 c2.51,1.24,5.22,2.04,7.95,2.66c5.48,1.15,11.1,1.56,16.68,1.49c5.58-0.07,11.18-0.63,16.57-1.95c2.68-0.68,5.33-1.55,7.75-2.8 c1.2-0.62,2.33-1.38,3.26-2.26c0.9-0.9,1.57-1.98,1.54-3.08c-0.01-1.09-0.69-2.14-1.61-3.01c-0.94-0.86-2.07-1.58-3.28-2.17 c-2.42-1.19-5.07-1.99-7.75-2.61c-2.69-0.62-5.43-1.03-8.18-1.31c-2.75-0.3-5.53-0.44-8.3-0.46c-5.55-0.04-11.13,0.24-16.6,1.29 c-2.72,0.56-5.43,1.28-7.95,2.46c-1.25,0.6-2.45,1.32-3.48,2.25C31.94,16,31.1,17.22,31.08,18.62z M30.86,18.62 c-0.02-1.48,0.83-2.79,1.83-3.79c1.03-1,2.21-1.82,3.47-2.49c2.5-1.37,5.19-2.34,7.93-3.11c5.48-1.52,11.18-2.27,16.87-2.33 c2.85-0.01,5.7,0.11,8.54,0.39c2.84,0.3,5.66,0.78,8.45,1.46c2.78,0.71,5.53,1.61,8.14,2.97c1.3,0.68,2.55,1.5,3.67,2.57 c0.54,0.55,1.05,1.17,1.44,1.89c0.39,0.72,0.64,1.57,0.63,2.44c-0.01,0.87-0.27,1.71-0.67,2.42c-0.4,0.71-0.91,1.32-1.46,1.85 c-1.12,1.04-2.38,1.83-3.69,2.47c-2.61,1.29-5.36,2.13-8.14,2.77c-5.56,1.25-11.24,1.71-16.9,1.67 c-5.65-0.1-11.32-0.71-16.79-2.13c-2.73-0.71-5.43-1.61-7.94-2.91c-1.26-0.64-2.45-1.43-3.49-2.4 C31.74,21.38,30.87,20.1,30.86,18.62z" fill="#7F441C"/>
    </g>
    <path d="M37.81,17.5c0,3.71,9.66,6.72,21.57,6.72s21.57-3.01,21.57-6.72s-9.66-6.72-21.57-6.72 S37.81,13.79,37.81,17.5z M41.49,17.5c0-2.78,7.62-5.04,17.03-5.04s17.03,2.26,17.03,5.04s-7.62,5.04-17.03,5.04 S41.49,20.28,41.49,17.5z" fill="#B5772C" opacity="0.82"/>
    <linearGradient id="SVGID_3_" gradientTransform="matrix(-1 0 0 1 120.75 0)" gradientUnits="userSpaceOnUse" x1="50.85" x2="67.8392" y1="16.9386" y2="16.9386">
      <stop offset="3.585447e-04" stop-color="#8A5140"/>
      <stop offset="1" stop-color="#8A5140"/>
    </linearGradient>
    <ellipse cx="61.41" cy="16.94" fill="url(#SVGID_3_)" opacity="0.74" rx="8.49" ry="2.24"/>
  </g>
</svg>

<svg viewBox="0 0 128 128" xmlns="http://www.w3.org/2000/svg">
  <defs>
    <linearGradient id="SVGID_1_" gradientUnits="userSpaceOnUse" x1="102.0352" x2="102.0169" y1="43.768" y2="43.8319">
      <stop offset="0" stop-color="#CE8963"/>
      <stop offset="1" stop-color="#D08A61" stop-opacity="0"/>
    </linearGradient>
    <radialGradient id="SVGID_2_" cx="-50.993419" cy="15.320815" gradientTransform="matrix(-1.1788 0 0 0.9412 0 0)" gradientUnits="userSpaceOnUse" r="21.6674">
      <stop offset="0.0561" stop-color="#FFA726"/>
      <stop offset="0.135" stop-color="#FFA726"/>
      <stop offset="1" stop-color="#FFA726" stop-opacity="0.1"/>
    </radialGradient>
    <linearGradient id="SVGID_3_" gradientTransform="matrix(-1 0 0 1 0 0)" gradientUnits="userSpaceOnUse" x1="-69.9" x2="-52.9108" y1="16.9386" y2="16.9386">
      <stop offset="3.585447e-04" stop-color="#8A5140"/>
      <stop offset="1" stop-color="#8A5140"/>
    </linearGradient>
  </defs>
  <path d="M37.29,113.26 L28.87,117.74 L28.87,97.58 L39.39,108.78 Z" fill="#633D35"/>
  <path d="M99.99,19.95 C99.99,22.97 100.5,41.44 100.5,41.44 C100.5,41.44 100.76,43.42 102.25,43.92 C103.23,44.25 105.37,43.55 107.98,41.51 C108.33,41.24 108.8,41.2 109.18,41.42 C110.18,42.02 112.33,43.19 113.68,46.74 C115.17,50.66 114.89,53.96 114.66,55.36 C114.58,55.83 114.36,56.26 114.09,56.6 C111.66,59.6 99.5,75.18 99.5,85.08 C99.5,85.08 99.7,99.53 99.7,108.03 C99.7,115.78 86.61,122.25 69.21,123.75 L59.5,121.08 L48.3,123.09 C44.74,122.54 41.42,121.78 38.44,120.84 L30.97,99.82 L28.87,117.74 C28.87,117.74 23.26,111.99 23.26,108.03 C23.26,99.46 21.16,20 21.16,20 L99.99,19.95 Z" fill="#AD7156"/>
  <path d="M102.25,43.91 C102.08,43.85 101.93,43.77 101.79,43.68 C101.97,43.8 102.14,43.87 102.25,43.91 Z" fill="url(#SVGID_1_)"/>
  <path d="M47,35.58 C46.67,41.14 46.09,46.65 45.47,52.15 L44.54,60.38 C44.25,63.12 43.87,65.83 43.95,68.46 C43.95,71.16 44.08,73.92 44.22,76.67 L44.59,84.95 C44.83,90.48 45.04,96.01 45,101.58 C43.8,96.14 42.95,90.65 42.26,85.14 C41.58,79.62 41.05,74.12 40.95,68.47 C40.93,65.56 41.35,62.76 41.73,60.01 C42.17,57.26 42.61,54.52 43.16,51.8 C44.23,46.35 45.45,40.94 47,35.58 Z" fill="#CE8963"/>
  <path d="M34,63.58 C34.27,64.28 34.3,65.04 34.38,65.77 C34.43,66.51 34.48,67.25 34.5,67.99 C34.54,69.47 34.56,70.95 34.54,72.43 C34.52,75.39 34.41,78.34 34.25,81.29 C34.1,84.24 33.9,87.18 33.66,90.12 C33.45,93.06 33.14,96 32.85,98.94 L32.82,98.58 L34.24,103.79 L35.59,109.02 C36.46,112.52 37.29,116.02 38,119.57 C36.68,116.21 35.48,112.8 34.32,109.39 L32.62,104.26 L31,99.13 L30.95,98.97 L30.97,98.78 C31.22,95.85 31.43,92.91 31.71,89.97 C31.96,87.04 32.24,84.1 32.53,81.17 L33.42,72.38 L33.85,67.98 C33.92,67.25 33.98,66.51 34.03,65.78 C34.05,65.05 34.15,64.31 34,63.58 Z" fill="#CE8963"/>
  <path d="M58.5,96.08 L58.5,121.08 L66.5,123.08 C66.5,123.08 61.5,108.08 58.5,96.08 Z" fill="#CE8963"/>
  <path d="M88.5,79.08 C94.18,66.13 114.18,52.15 114.18,52.15 L114.77,51.72 C114.88,53.48 114.79,54.76 114.63,55.46 C114.56,55.77 114.33,56.28 114.17,56.47 C112.25,58.83 99.5,74.89 99.5,85.07 C99.5,85.07 99.7,99.52 99.7,108.02 C99.7,111.83 95.5,117.07 86.5,120.07 L90.5,91.07 L81.5,100.07 C81.5,100.08 84.51,88.19 88.5,79.08 Z" fill="#965B44"/>
  <path d="M100.5,40.79 C100.76,44.84 103.58,43.92 103.58,43.92 C100.34,45.44 95.64,46.29 92.92,44.48 C89.92,42.48 88.5,32.09 88.5,32.09 L90.5,26.09 L99.94,20.56 L100.5,40.79 Z" fill="#965B44"/>
  <path d="M58.48,4.27 C38.43,4.73 22.5,11.73 22.5,20.3 C22.5,29.17 39.55,36.35 60.58,36.35 C81.61,36.35 98.66,29.16 98.66,20.3 C98.66,11.77 82.88,4.79 62.95,4.28" fill="#FFCC80"/>
  <path d="M58.48,4.27 C51.31,4.84 44.16,5.97 37.49,8.43 C34.17,9.64 30.93,11.14 28.22,13.23 C26.89,14.28 25.66,15.46 24.85,16.82 C24.01,18.16 23.67,19.66 23.91,21.1 C24.15,22.53 24.96,23.89 26.07,25.05 C27.18,26.21 28.52,27.24 29.98,28.1 C32.91,29.83 36.2,31.06 39.56,31.99 C46.31,33.85 53.39,34.63 60.45,34.62 C67.5,34.64 74.59,33.89 81.35,32.05 C84.71,31.13 88.02,29.92 90.96,28.22 C92.43,27.37 93.8,26.38 94.92,25.22 C96.05,24.08 96.92,22.74 97.2,21.31 C97.53,19.88 97.19,18.38 96.43,17.02 C95.65,15.66 94.46,14.45 93.14,13.39 C90.47,11.26 87.23,9.75 83.92,8.52 C77.27,6.03 70.12,4.88 62.95,4.28 C64.75,4.25 66.55,4.26 68.36,4.32 C70.16,4.41 71.97,4.56 73.76,4.77 C77.35,5.21 80.94,5.86 84.45,6.9 C87.94,7.98 91.4,9.37 94.5,11.56 C96.05,12.66 97.49,14 98.57,15.72 C99.64,17.43 100.25,19.65 99.86,21.78 C99.52,23.92 98.36,25.75 97.04,27.2 C95.7,28.67 94.14,29.82 92.52,30.82 C89.28,32.8 85.78,34.15 82.24,35.21 C75.12,37.25 67.77,38.05 60.44,38.08 C53.12,38.02 45.76,37.21 38.65,35.13 C35.11,34.06 31.62,32.68 28.39,30.68 C26.78,29.67 25.24,28.48 23.91,26.99 C22.61,25.51 21.51,23.62 21.23,21.48 C21.1,20.42 21.17,19.33 21.44,18.3 C21.7,17.27 22.18,16.34 22.73,15.49 C23.84,13.79 25.32,12.5 26.87,11.41 C30,9.27 33.45,7.89 36.95,6.83 C40.46,5.81 44.05,5.17 47.65,4.74 C49.45,4.54 51.25,4.39 53.06,4.31 C54.87,4.23 56.68,4.23 58.48,4.27 Z" fill="#CE8963"/>
  <path d="M21.91,17.65 C21.91,24.68 36.24,30.38 53.93,30.38 C71.62,30.38 85.95,24.68 85.95,17.65 C85.95,10.62 79.7,2.51 53.93,4.91 C36.32,6.56 21.91,10.61 21.91,17.65 Z" fill="url(#SVGID_2_)"/>
  <path d="M31.08,18.62 C31.07,20.01 31.89,21.26 32.87,22.23 C33.88,23.19 35.08,23.94 36.33,24.57 C38.84,25.81 41.55,26.61 44.28,27.23 C49.76,28.38 55.38,28.79 60.96,28.72 C66.54,28.65 72.14,28.09 77.53,26.77 C80.21,26.09 82.86,25.22 85.28,23.97 C86.48,23.35 87.61,22.59 88.54,21.71 C89.44,20.81 90.11,19.73 90.08,18.63 C90.07,17.54 89.39,16.49 88.47,15.62 C87.53,14.76 86.4,14.04 85.19,13.45 C82.77,12.26 80.12,11.46 77.44,10.84 C74.75,10.22 72.01,9.81 69.26,9.53 C66.51,9.23 63.73,9.09 60.96,9.07 C55.41,9.03 49.83,9.31 44.36,10.36 C41.64,10.92 38.93,11.64 36.41,12.82 C35.16,13.42 33.96,14.14 32.93,15.07 C31.94,16 31.1,17.22 31.08,18.62 Z M30.86,18.62 C30.84,17.14 31.69,15.83 32.69,14.83 C33.72,13.83 34.9,13.01 36.16,12.34 C38.66,10.97 41.35,10 44.09,9.23 C49.57,7.71 55.27,6.96 60.96,6.9 C63.81,6.89 66.66,7.01 69.5,7.29 C72.34,7.59 75.16,8.07 77.95,8.75 C80.73,9.46 83.48,10.36 86.09,11.72 C87.39,12.4 88.64,13.22 89.76,14.29 C90.3,14.84 90.81,15.46 91.2,16.18 C91.59,16.9 91.84,17.75 91.83,18.62 C91.82,19.49 91.56,20.33 91.16,21.04 C90.76,21.75 90.25,22.36 89.7,22.89 C88.58,23.93 87.32,24.72 86.01,25.36 C83.4,26.65 80.65,27.49 77.87,28.13 C72.31,29.38 66.63,29.84 60.97,29.8 C55.32,29.7 49.65,29.09 44.18,27.67 C41.45,26.96 38.75,26.06 36.24,24.76 C34.98,24.12 33.79,23.33 32.75,22.36 C31.74,21.38 30.87,20.1 30.86,18.62 Z" fill="#7F441C" opacity="0.66"/>
  <path d="M37.81,17.5 C37.81,21.21 47.47,24.22 59.38,24.22 C71.29,24.22 80.95,21.21 80.95,17.5 C80.95,13.79 71.29,10.78 59.38,10.78 C47.47,10.78 37.81,13.79 37.81,17.5 Z M41.49,17.5 C41.49,14.72 49.11,12.46 58.52,12.46 C67.93,12.46 75.55,14.72 75.55,17.5 C75.55,20.28 67.93,22.54 58.52,22.54 C49.11,22.54 41.49,20.28 41.49,17.5 Z" fill="#B5772C" opacity="0.82"/>
  <path d="M69.9,16.94 A8.49 2.24 0 1 1 52.92,16.94 A8.49 2.24 0 1 1 69.9,16.94 Z" fill="url(#SVGID_3_)" opacity="0.74"/>
</svg>
